humanity-icon-theme/Humanity-Dark/status/24/user-invisible-panel.svg

<?xml version="1.0" encoding="UTF-8" standalone="no"?>
<!-- Created with Inkscape (http://www.inkscape.org/) -->

<svg
   xmlns:svg="http://www.w3.org/2000/svg"
   xmlns="http://www.w3.org/2000/svg"
   version="1.1"
   width="24"
   height="24"
   id="svg2816"
   style="display:inline">
  <defs
     id="defs2818" />
  <path
     d="M 9,17 C 7.4722222,16.968749 5,16 5,13 L 5,10 C 5,7 7.5,6.0833333 9,6 l 7,0 c 1.5,0.1145829 4,1 4,4 l 0,3 c 0,3 -1.513889,4 -3,4 -2.396168,-0.01417 -0.516156,2.724315 0,4 L 16.333333,21 12,17 l 0,-1 5,0 c 1,0 2,-1 2,-3 l 0,-3 C 19,8 17,7 16,7 L 9,7 C 8,7 6,8 6,10 l 0,3 c 0,2 2,3 3,3 l 3,0 0,1 -3,0 z"
     id="path2819"
     style="fill:#969696;fill-opacity:1;stroke:none" />
</svg>

<?xml version="1.0" encoding="UTF-8" standalone="no"?>
<!-- Created with Inkscape (http://www.inkscape.org/) -->
<svg id="svg2816" xmlns="http://www.w3.org/2000/svg" height="24" width="24" version="1.1">
 <path id="path2819" style="fill:#969696" d="m9 17c-1.5278-0.031-4-1-4-4v-3c0-3 2.5-3.9167 4-4h7c1.5 0.11458 4 1 4 4v3c0 3-1.5139 4-3 4-2.3962-0.01417-0.51616 2.7243 0 4h-0.667l-4.333-4v-1h5c1 0 2-1 2-3v-3c0-2-2-3-3-3h-7c-1 0-3 1-3 3v3c0 2 2 3 3 3h3v1h-3z"/>
</svg>
